X:1
T:Anima eletta
T:Anima eletta
T:Angelo Notari
T:Source : Prime Musiche nuove a uno, due et tre voci---London---G.Hole---1613. Editor : André Vierendeels (19/10/16).
T:Notes : Original clefs : F4, F4
T:©
T:©
T:©
T:©
T:©
T:©
T:©
C:Angelo Notari
Z:©
%%score 1 2
L:1/8
Q:1/4=93
M:4/4
K:F
V:1 bass nm="Bass" snm="B"
V:2 bass nm="MusicXML Part"
V:1
 F,4- F,F, G,2 | A,6 A,2 | z2 C4 D,E, | F,4 F,4 | z2 F,F, D,2 G,,2 | C,8 | C,8 | z C,C,C, C,4 | %8
w: A- * ni- ma'e-|let- ta,|A- ni- ma'e-|let- ta|che co'l tuo fat-|to-|re,|ti go- di'às- si-|
 C,4 C,F,A,C | A,,>G,, F,,G,, A,,B,, C,>D, | C,8 | G,8 | G,3 G, _E,2 D,2 | C,3 C, A,,2 D,2 | %14
w: sa- ne dtel- la- ti|chio- * * * * * * *|stri,|o-|ve lu- cen- tè|bel- la'hor- ti di|
 G,,A,,/B,,/ C,/D,/E,/F,/ G,3 F,/E,/ | D,2 C,2 D,2 D,,2 | G,,4 z4 | z A,A,G, F,2 F,2 | %18
w: no- * * * * * * * * *||stri,|tut- ta pie- to- sa,|
 z G,G,F, E,2 E,2 | z F,F,E, D,2 D,2 | E,D,C,B,, A,,4 | G,,8 | z2 G,G, G,2 G,G,, | C,8 | %24
w: tut- ta pie- to- sa,|tut- ta pie- to- sa|del mon- da- no'er- ro-|re:|Se mai ve- ra pie-|ta,|
 z2 C,C, C,2 C,C, | F,,6 F,2 | B,,4 A,,4 | D,8 | G,,6 B,,B,, | B,,2 B,,B,, B,,3 B,, | _E,4 D,4 | %31
w: se mai ve- ra pie-|ta se|giu- sto'a-|mo-|re, ti so-|spin- se'a- cu- rar de|dà- ni|
 C,D,/E,/ F,/G,/A,/B,/ C/C,/D,/E,/ F,/G,,/A,,/B,,/ | C,8 | F,,8 | C,8 | F,<E, F,<G, A,<G, A,<B, | %36
w: no- * * * * * * * * * * * * * *||stri,|fra|si _ _ _ di- * * *|
 C<A, B,<G, A,<F, G,<E, | F,6 C,2 | C,4 =B,,4 | C,D,/E,/ D,E,/F,/ E,F,/G,/ F,2- | %40
w: stor _ _ _ te _ _ _|vie fra|tan- ti|mo- * * * * * * * * *|
 F,2- F,G,/A,/ G,,4 | G,4 G,3 F, | E,4 E,4 | A,6 A,,A,, | D,6 D,2 | F,2 A,2 C2 A,,2 | G,,8 | C,8 | %48
w: * * * * stri,|pre- ga, ch'io|tro- vi,|pre- ga, ch'io|tro- v'il|gia per- du- to|co-|re,|
 z2 C2 C3 B, | A,4 A,4 | z2 A,2 A,2 G,2 | F,4 E,4 | %52
w: ve- nir ve-|drà- ni|a ve- ne-|rar le|
 D,/E,/^F,/E,/ D,/C,/B,,/A,,/ =B,,/D,/B,,/A,,/ G,,/F,,/E,,/D,,/ | C,,8 | G,6 F,G, | A,4- A,CB,A, | %56
w: Tom- * * * * * * * * * * * * * * *|ba,|o- ve la-|scia- * sti le re-|
 G,2 F,2 G,4 | F,8 | A,2 A,A, A,2 =B,/G,/A,/B,/ | CCG,C, F,/G,/A,/F,/ A,/B,/C/C,/ | %60
w: li- quie san-|ti,|per cui si chia- ra'in- * * *|Ciel Pa- do'a rim- bom- * * * * * * *|
 F,>A, C>A, F,>C, A,,F,, | C,8 |: E,4 E,2 E,2 | D,4 E,C,D,E, | F,8 | F,4 F,2 F,2 | E,4 ^F,D, E,F, | %67
w: |ba.|Tu- i le|lo- di _ _ _|tue,|tu- i le|lo- di _ tue _|
 G,3 F, E,2 ^F,G,/A,/ | D,8 | D,D,D,D, G,4 | E,E,E,E, A,3 ^F, | =B,A,G,^F, E,2 E,2 | %72
w: si bel- le, e _ _|tan-|te, quant- un- gue de-|gne, quant- un- gue de- gne|di piu l'al- tra trom- ba|
 z2 E,E, F,/D,/F,/G,/ A,/F,/A,/C/ | C2 A,/G,/F,/E,/ F,/D,/G,/F,/ E,/D,/C,/B,,/ | C,8 | F,,6 F,2 | %76
w: di piu l'al- * * * te- * * *|ra trom- * * * * * * * * * * *||ba, con|
 A,2 C2 A,2 G,2 | F,2 C,2 A,,2 C,2 | F,,4 C,2 C,2 | E,2 G,2 E,2 D,2 | %80
w: vo- ce dir m'u-|drai bas- sa'e tre-|man- te, con|vo- ce dir m'u-|
 C,2 E,/D,/E,/C,/ D,/C,/D,/B,,/ C,/B,,/C,/A,,/ | B,,/A,,/B,,/G,,/ A,,/G,,/A,,/F,,/ G,,4 | %82
w: drai bas- * * * * * * * sa'e _ _ _|_ _ _ _ tre- * * * man-|
 !fermata!F,,8 :| %83
w: te.|
V:2
"^BC" F,,8 | F,,8 | F,,8 | F,,8 | F,4 D,2 G,,2 | C,8 | C,8 | C,8 | C,4 F,,4 | F,,8 | C,8 | %11
 G,,4 G,4- | G,4 _E,2 D,2 | C,4 A,,2 D,2 | G,,8 | D,2 C,2 D,2 D,,2 | G,,4 C,4 | A,,4 z D,D,C, | %18
 =B,,4 z C,C,B,, | A,,4 =B,,4 | C,4 D,4 | G,,8 | G,4 G,,4 | C,8 | C,8 | F,,8 | B,,4 A,,4 | D,8 | %28
 G,,6 B,,2 | B,,8 | _E,4 D,4 | C,4 C,4 | C,8 | F,,8 | C,8 | F,8 | F,,8 | F,,6 C,2 | C,4 =B,,4 | %39
 A,,8 | A,,4 G,,4 | G,8 | C,8 | A,,8 | D,8 | A,,8 | G,,8 | C,8 | C,8 | F,,8 | F,,6 C,2 | F,4 E,4 | %52
 D,4 G,,4 | C,,8 | C,8 | F,,8 | C,8 | F,,8 | F,4 D,4 | C,4 F,,4 | F,,8 | C,8 |: C,8 | =B,,4 C,4 | %64
 F,,8 | D,4 D,4 | ^C,4 D,4 | =B,,4 C,2 A,,2 | G,,8 | G,,4 G,,4 | C,4 A,,2 D,2 | =B,,4 C,4 | %72
 C,4 D,4 | A,,4 D,4 | C,8 | F,,8 | F,2 E,2 F,2 C,2 | F,2 C,2 A,,2 C,2 | F,,4 C,2 C,2 | %79
 C,2 =B,,2 C,2 G,,2 | C,2 C,2 B,,2 A,,2 | G,,2 F,,2 C,,4 | !fermata!F,,8 :| %83

